data/themes/default-svg/speaker.svg

<svg height="14" width="14" xmlns="http://www.w3.org/2000/svg"><path d="m6.3339845 1.000434c-.341797.00684-.3964845.0625-.8339845.5l-2 2c-.5.5-.5.5-1 .5h-1.5c-.5 0-1 .440207-1 1v3.9999998c0 .5.5 1.0000002 1 1.0000002h1.5c.5 0 .5 0 1 .5l2 2c.5.5.5.5 1 .5h.5v-12h-.5c-.0625 0-.1172-.0009765-.1660155 0zm4.6660155 1-1 1c1.417505 1.4175045 2 2.7333335 2 3.9999998 0 1.266665-.582495 2.582495-2 4.0000002l1 1c1.582495-1.582495 2.367188-3.2666652 2.367188-5.0000002 0-1.7333348-.784693-3.4175038-2.367188-4.9999998zm-2 2-1 1c.95875.958755 1.375 1.56111 1.375 1.9999998 0 .4389-.41625 1.04125-1.375 2l1 1.0000002c1.04125-1.0412502 1.703125-1.9388852 1.703125-3.0000002 0-1.0611098-.661875-1.9587508-1.703125-2.9999998z" fill="#fff"/></svg>

<?xml version="1.0" encoding="UTF-8" standalone="no"?>
<svg
   xml:space="preserve"
   width="14"
   height="14"
   version="1.1"
   xmlns="http://www.w3.org/2000/svg"
   xmlns:svg="http://www.w3.org/2000/svg"
   xmlns:rdf="http://www.w3.org/1999/02/22-rdf-syntax-ns#"
   xmlns:cc="http://creativecommons.org/ns#"
   xmlns:dc="http://purl.org/dc/elements/1.1/">
  <title
   >LMMS mute button (inactive)</title>
  <metadata
   id="metadata1">
    <rdf:RDF>
      <cc:Work>
        <cc:license
   rdf:resource="http://creativecommons.org/publicdomain/zero/1.0/" />
        <dc:title>LMMS mute button (inactive)</dc:title>
        <dc:creator>
          <cc:Agent>
            <dc:title>Rebecca Noel Ati, Stakeout Punch</dc:title>
          </cc:Agent>
        </dc:creator>
      </cc:Work>
      
    <cc:License
   rdf:about="http://creativecommons.org/publicdomain/zero/1.0/"><cc:permits
     rdf:resource="http://creativecommons.org/ns#Reproduction" /><cc:permits
     rdf:resource="http://creativecommons.org/ns#Distribution" /><cc:permits
     rdf:resource="http://creativecommons.org/ns#DerivativeWorks" /></cc:License></rdf:RDF>
  </metadata>
  
  
  
  <path
   id="speaker"
   fill="#fff"
   d="M 6.3339845,1.000434 C 5.9921875,1.007274 5.9375,1.062934 5.5,1.500434 l -2,2 c -0.5,0.5 -0.5,0.5 -1,0.5 H 1 c -0.5,0 -1,0.440207 -1,1 v 3.9999998 c 0,0.5 0.5,1.0000002 1,1.0000002 h 1.5 c 0.5,0 0.5,0 1,0.5 l 2,2 c 0.5,0.5 0.5,0.5 1,0.5 H 7 v -12 H 6.5 c -0.0625,0 -0.1172,-9.765e-4 -0.1660155,0 z m 4.6660155,1 -1,1 c 1.417505,1.4175045 2,2.7333335 2,3.9999998 0,1.266665 -0.582495,2.582495 -2,4.0000002 l 1,1 C 12.582495,10.417939 13.367188,8.7337688 13.367188,7.0004338 13.367188,5.267099 12.582495,3.58293 11,2.000434 Z m -2,2 -1,1 c 0.95875,0.958755 1.375,1.56111 1.375,1.9999998 0,0.4389 -0.41625,1.04125 -1.375,2 L 9,10.000434 C 10.04125,8.9591838 10.703125,8.0615488 10.703125,7.0004338 10.703125,5.939324 10.04125,5.041683 9,4.000434 Z"
   style="fill:#ffffff;fill-opacity:1" />
</svg>
